svgs/regular/tv.svg

<svg xmlns="http://www.w3.org/2000/svg" viewBox="0 0 640 512"><!-- Font Awesome Pro 6.0.0-alpha2 by @fontawesome - https://fontawesome.com License - https://fontawesome.com/license (Commercial License) --><path d="M520 464H120C106.746 464 96 474.744 96 488C96 501.254 106.746 512 120 512H520C533.254 512 544 501.254 544 488C544 474.744 533.254 464 520 464ZM576 0H64C28.654 0 0 28.654 0 64V352C0 387.346 28.654 416 64 416H576C611.348 416 640 387.346 640 352V64C640 28.654 611.348 0 576 0ZM592 352C592 360.822 584.822 368 576 368H64C55.178 368 48 360.822 48 352V64C48 55.178 55.178 48 64 48H576C584.822 48 592 55.178 592 64V352Z"/></svg>

<svg xmlns="http://www.w3.org/2000/svg" viewBox="0 0 640 512"><!--! Font Awesome Pro 6.0.0-alpha3 by @fontawesome - https://fontawesome.com License - https://fontawesome.com/license (Commercial License) --><path d="M520 464H120C106.7 464 96 474.7 96 488C96 501.3 106.7 512 120 512h400c13.25 0 24-10.75 24-24C544 474.7 533.3 464 520 464zM576 0H64C28.65 0 0 28.65 0 64v288c0 35.35 28.65 64 64 64h512c35.35 0 64-28.65 64-64V64C640 28.65 611.3 0 576 0zM592 352c0 8.822-7.178 16-16 16H64c-8.822 0-16-7.178-16-16V64c0-8.822 7.178-16 16-16h512c8.822 0 16 7.178 16 16V352z"/></svg>
